X:76
T:Kas a barh (A. Pennec)
C:Pennec, Tablatures
M:4/4
L:1/8
K:G
G2Bc dGgG|fGeG dGef|gGeG dGef|gGdG BGAB|
G2Bc dGgG|fGeG dGef|gGeG dGBc|dcAF G4:|
|:G2FG AD D/D/D|FGAB cdef|gfed edcB|AB c/B/A BdcA|
G2FG AD D/D/D|FGAB cdef|gfed edcB|cAFA G4:|
